Yaru++/actions/16/format-remove-node.svg

<svg viewBox="0 0 24 24" xmlns="http://www.w3.org/2000/svg">
  <path d="m10 10v1h-6v1h6v2h4v-2h6v-1h-6v-1zm1 1h2v1 1h-2z" fill="#808080"/>
  <path d="m14.990234 14-.990234.990234 2.009766 2.009766-2.009766 2.009766.990234.990234 2.009766-2.009766 2.009766 2.009766.990234-.990234-2.009766-2.009766 2.009766-2.009766-.990234-.990234-2.009766 2.009766z" fill="#da4453"/>
</svg>

<svg xmlns="http://www.w3.org/2000/svg" viewBox="0 0 24 24">
 <defs>
  <style id="current-color-scheme" type="text/css">
   .ColorScheme-Text { color:#808080; } .ColorScheme-NegativeText { color:#da4453; }
  </style>
 </defs>
 <path style="fill:currentColor" class="ColorScheme-Text" d="M 10 10 L 10 11 L 4 11 L 4 12 L 10 12 L 10 14 L 14 14 L 14 12 L 20 12 L 20 11 L 14 11 L 14 10 L 10 10 z M 11 11 L 13 11 L 13 12 L 13 13 L 11 13 L 11 11 z"/>
 <path style="fill:currentColor" class="ColorScheme-NegativeText" d="M 14.990234 14 L 14 14.990234 L 16.009766 17 L 14 19.009766 L 14.990234 20 L 17 17.990234 L 19.009766 20 L 20 19.009766 L 17.990234 17 L 20 14.990234 L 19.009766 14 L 17 16.009766 L 14.990234 14 z"/>
</svg>
